X:222
T: Kranzsingen
N: A0271A
O: Europa, Mitteleuropa, Deutschland
N: Klugs Gsgb 1535 No. 28
R: Romanze, Ballade, Lied
M: 4/1
L: 1/2
K: F
F | c2c2d2c2 | A2BGA2z
F | c2c2c2AB | cBAGF2z
F | F2G2A2A2 | F2G2A2z
F | c2c2c2A2 | B2G2F3

@@@ Tune index: 222
